X:8290
T:Finska polkan
T:The Finnish polka
C:anon.
O:Sweden
N:I don't actually think this tune is from Finland, despite it's name.
R:Polka
Z:Transcribed by Frank Nordberg - http://www.musicaviva.com
F:http://abc.musicaviva.com/tunes/sweden/finska-polkan.abc
%Posted March 6th 2002 at abcusers by Frank Nordberg in response to Jack Campin's request for information about "The Hoy Song".
M:2/4
L:1/16
Q:1/4=170
K:F
"F".c2.c2 .c2.c2|"F".c2(=Bc .d2).c2|"F".A2.A2 .A2.A2|"F".A2(^GA .B2).A2|
"C7"(G2C2) EGCE|"G"(G2C2) EGCE|"C7"(GECE A2)(CE|"F"G2)F2 F2 z2:|
%8vb
|:"F"(cdcB .A2).c2|"F"f6 (fg|"F".a2).a2 .g2.a2|"Bb"b2 z2 a4|
%non 8vb
"C7"(G2C2) EGCE|"G"(G2C2) EGCE|"C7"(GECE A2)(CE|"F"G2)F2 F2 z2:|
%8vb
|:"F"FAcA FAcA|"Bb"Bdfd Bdfd|"C7"cege cdef|"C7"gfed cBAG|
"F"FAcA FAcA|"Bb"Bdfd Bdfd|"C7"cege cege|"F"f2f2 f2 z2:|
W:
W:
W:  From Musica Viva - http://www.musicaviva.com
W:  the Internet center for free sheet music downloads.
